public/images/instagram.svg

<svg viewBox="0 0 50 50" xmlns="http://www.w3.org/2000/svg"><g fill="#a2a09e"><path d="m29.88 37.77h-9.76a7.91 7.91 0 0 1 -7.89-7.89v-9.76a7.91 7.91 0 0 1 7.89-7.89h9.76a7.9 7.9 0 0 1 7.88 7.89v9.76a7.9 7.9 0 0 1 -7.88 7.89m-9.76-22.69a5 5 0 0 0 -5 5v9.76a5 5 0 0 0 5 5h9.76a5 5 0 0 0 5-5v-9.72a5 5 0 0 0 -5-5z"/><path d="m25 31.52a6.52 6.52 0 1 1 6.53-6.52 6.52 6.52 0 0 1 -6.53 6.52m0-10.52a4 4 0 1 0 4 4 4 4 0 0 0 -4-4"/><path d="m33 18.1a1.11 1.11 0 1 1 -1.15-1.1 1.11 1.11 0 0 1 1.15 1.1"/><path d="m43.88 50h-37.76a6.13 6.13 0 0 1 -6.12-6.12v-37.76a6.13 6.13 0 0 1 6.12-6.12h37.76a6.13 6.13 0 0 1 6.12 6.12v37.76a6.13 6.13 0 0 1 -6.12 6.12m-37.76-47.89a4 4 0 0 0 -4 4v37.77a4 4 0 0 0 4 4h37.76a4 4 0 0 0 4-4v-37.76a4 4 0 0 0 -4-4z"/></g></svg>

<svg xmlns="http://www.w3.org/2000/svg" viewBox="0 0 50 50"><defs><style>.cls-1{fill:#a2a09e;}</style></defs><g id="Layer_2" data-name="Layer 2"><g id="Layer_2-2" data-name="Layer 2"><path class="cls-1" d="M29.88,37.77H20.12a7.91,7.91,0,0,1-7.89-7.89V20.12a7.91,7.91,0,0,1,7.89-7.89h9.76a7.9,7.9,0,0,1,7.88,7.89v9.76a7.9,7.9,0,0,1-7.88,7.89M20.12,15.08a5,5,0,0,0-5,5v9.76a5,5,0,0,0,5,5h9.76a5,5,0,0,0,5-5V20.12a5,5,0,0,0-5-5Z"/><path class="cls-1" d="M25,31.52A6.52,6.52,0,1,1,31.53,25,6.52,6.52,0,0,1,25,31.52M25,21a4,4,0,1,0,4,4,4,4,0,0,0-4-4"/><path class="cls-1" d="M33,18.1A1.11,1.11,0,1,1,31.85,17,1.11,1.11,0,0,1,33,18.1"/><path class="cls-1" d="M43.88,50H6.12A6.13,6.13,0,0,1,0,43.88V6.12A6.13,6.13,0,0,1,6.12,0H43.88A6.13,6.13,0,0,1,50,6.12V43.88A6.13,6.13,0,0,1,43.88,50M6.12,2.11a4,4,0,0,0-4,4V43.88a4,4,0,0,0,4,4H43.88a4,4,0,0,0,4-4V6.12a4,4,0,0,0-4-4Z"/></g></g></svg>
